X: 247
T: I'm Gonna have My Mustache Blacked
B: canberra pickers and fiddlers
B: tunes
M:4/4
L:1/8
R: scottische
Q: 1/4=100
K:D
V:1 
d2dA faec|d2d2F2G2|ABAF E2FG|ABAG FGAc|
d2d2 fAec|dcd2F2G2  |ABAG F2 C2|D6||
f2-|fgag f2e2|dc d2 F2A2|gfg2 B2g2|fef2 A2f2-|
fgag f2e2|dcd2 F2G2|ABAG F2C2|D6||
% abcbook-tune_id 63ae8f1c24b4cf298f3eb40f
% abcbook-tune_composer_id 
% abcbook-link-0 https://www.youtube.com/watch?v=TK_WccmR0ds
% abcbook-link-title-0 Sept 2024 TOTM: Going to get my Mustache Blacked When I get There
% abcbook-link-start-at-0 9
% abcbook-link-1 https://www.youtube.com/watch?v=xHsRQyhI33w
% abcbook-boost 0
% abcbook-difficulty 0
% abcbook-tags canberra pickers and fiddlers,old time tunes,© free
% abcbook-tablature 
% abcbook-transpose 
% abcbook-tuning ADAE
% abcbook-lastupdated 1738973429524
% abcbook-src-url https://tunebook.net/scrape/tunes.abc
% abcbook-soundfonts 
% abcbook-repeats 1


